img/phone.svg

<svg width="24" height="24" viewBox="0 0 24 24" fill="none" xmlns="http://www.w3.org/2000/svg">
<path d="M12 0C5.3833 0 0 5.3833 0 12C0 18.6167 5.3833 24 12 24C16.0174 24 19.945 21.9016 21.3391 19.0111C21.8473 17.9583 21.6177 17.2383 21.335 16.8198C20.8842 16.151 19.9597 15.7962 18.7826 15.7638V15.1367C18.7826 14.4657 18.2369 13.92 17.5649 13.92C16.7687 13.92 15.9882 13.7958 15.2504 13.5517C14.8247 13.4045 14.2998 13.5433 14.0567 13.7958L12.6438 14.8623C11.0243 13.9805 10.0049 12.9621 9.13461 11.3541L10.1541 9.99652C10.4797 9.672 10.5955 9.1993 10.4557 8.75374C10.2104 8.01078 10.0852 7.23026 10.0852 6.43409C10.0873 5.76313 9.54052 5.21739 8.86957 5.21739H6.43513C5.76313 5.21739 5.21739 5.76313 5.21739 6.43513C5.21739 13.2438 10.7572 18.7826 17.5649 18.7826C18.2358 18.7826 18.7826 18.2369 18.7826 17.5649V16.7958C19.5861 16.8198 20.2195 17.0317 20.4699 17.4031C20.6588 17.6817 20.6348 18.0699 20.4 18.5562C19.1697 21.1064 15.6365 22.9565 12 22.9565C5.95826 22.9565 1.04348 18.0417 1.04348 12C1.04348 5.95826 5.95826 1.04348 12 1.04348C18.0417 1.04348 22.9565 5.95826 22.9565 12C22.9565 12.288 23.1903 12.5217 23.4783 12.5217C23.7663 12.5217 24 12.288 24 12C24 5.3833 18.6167 0 12 0Z" fill="#FCDB50"/>
</svg>

<svg width="24" height="24" fill="none" xmlns="http://www.w3.org/2000/svg"><path d="M12 0C5.383 0 0 5.383 0 12s5.383 12 12 12c4.017 0 7.945-2.098 9.34-4.989.507-1.053.278-1.773-.005-2.191-.45-.669-1.375-1.024-2.552-1.056v-.627c0-.671-.546-1.217-1.218-1.217a7.363 7.363 0 01-2.315-.368c-.425-.147-.95-.009-1.193.244l-1.413 1.066c-1.62-.882-2.64-1.9-3.51-3.508l1.02-1.357c.326-.325.441-.798.302-1.243a7.386 7.386 0 01-.37-2.32A1.216 1.216 0 008.87 5.217H6.435c-.672 0-1.218.546-1.218 1.218 0 6.809 5.54 12.348 12.348 12.348a1.22 1.22 0 001.218-1.218v-.77c.803.025 1.436.237 1.687.608.189.279.165.667-.07 1.153-1.23 2.55-4.763 4.4-8.4 4.4-6.042 0-10.957-4.914-10.957-10.956S5.958 1.043 12 1.043c6.042 0 10.956 4.915 10.956 10.957A.522.522 0 0024 12c0-6.617-5.383-12-12-12z" fill="#FCDB50"/></svg>
